src/assets/images/routing-HoneySwap.svg

<svg width="106" height="23" viewBox="0 0 106 23" fill="none" xmlns="http://www.w3.org/2000/svg">
<g opacity="0.6" clip-path="url(#clip0)">
<path d="M14.0972 9.91842C13.7567 9.80493 13.3595 9.86167 13.0758 10.0319L1.55725 16.6707C0.989835 17.0111 0.762869 17.7488 1.10332 18.3162C1.50051 19.1106 2.86231 19.8482 4.45108 20.1319C5.01849 20.2454 5.64265 20.3021 6.26681 20.3021C7.85558 20.3021 9.44434 19.9049 10.9196 19.224C12.2814 18.5999 13.5865 17.1813 14.3809 15.4791C15.232 13.6634 15.4022 11.9044 14.8348 10.5426C14.7213 10.3156 14.4376 10.0319 14.0972 9.91842Z" fill="white"/>
<path d="M31.9715 16.7274L20.4529 10.0319C20.1125 9.86167 19.772 9.80493 19.4316 9.91842C19.0911 10.0319 18.8074 10.2589 18.6939 10.5993C18.1265 11.9611 18.2967 13.7769 19.1479 15.5358C19.9423 17.2381 21.2473 18.5999 22.6091 19.2808C24.0844 19.9617 25.6732 20.3589 27.2619 20.3589C27.8861 20.3589 28.4535 20.3021 29.0777 20.1887C30.7232 19.8482 32.085 19.1106 32.4254 18.3729C32.7659 17.7488 32.5389 17.0679 31.9715 16.7274Z" fill="white"/>
<path fill-rule="evenodd" clip-rule="evenodd" d="M12.0547 0.668979C12.0547 0.385271 12.2817 0.101562 12.6221 0.101562C14.6081 0.101562 16.1968 1.69033 16.1968 3.67629C16.1968 3.96 15.9699 4.2437 15.6294 4.2437C15.3457 4.2437 15.062 4.01674 15.062 3.67629C15.062 2.31449 13.9272 1.17965 12.5654 1.17965C12.2817 1.17965 12.0547 0.952688 12.0547 0.668979Z" fill="#686868"/>
<path fill-rule="evenodd" clip-rule="evenodd" d="M20.9635 1.17965C19.6017 1.17965 18.4669 2.31449 18.4669 3.67629C18.4669 3.96 18.2399 4.2437 17.8994 4.2437C17.6157 4.2437 17.332 4.01674 17.332 3.67629C17.3888 1.69033 18.9775 0.101562 20.9635 0.101562C21.2472 0.101562 21.5309 0.328529 21.5309 0.668979C21.5309 1.00943 21.3039 1.17965 20.9635 1.17965Z" fill="#686868"/>
<path d="M22.2087 19.3945H10.293L15.6834 22.5153C16.3643 22.9125 17.1587 22.9125 17.8396 22.5153L23.2301 19.3945H22.2087Z" fill="#898C8D"/>
<path d="M23.8563 12.5273H9.10352V16.1021H24.4238V12.5273H23.8563Z" fill="#898C8D"/>
<path d="M23.3457 9.23838L23.2322 9.18164H10.2951L10.1816 9.23838C9.50071 9.63557 9.10352 10.3165 9.10352 11.0541V12.4727H24.4238V11.0541C24.4238 10.3732 23.9698 9.63557 23.3457 9.23838Z" fill="#D4D4D4"/>
<path d="M23.8563 16.1035H9.10352V17.5221C9.10352 18.2597 9.50071 18.9973 10.1816 19.3378L10.2951 19.3945H23.2322L23.3457 19.3378C24.0266 18.9406 24.4238 18.2597 24.4238 17.5221V16.1035H23.8563Z" fill="#D4D4D4"/>
<path d="M17.8396 6.05961C17.1587 5.66242 16.3643 5.66242 15.7402 6.05961L10.293 9.1804H23.1733L17.8396 6.05961Z" fill="#686868"/>
<path d="M43.8326 10.0312H45.1376V19.5071H43.8326V15.138H39.35V19.5071H38.0449V10.0312H39.35V14.0032H43.8326V10.0312ZM53.4219 15.9324C53.4219 16.4998 53.3652 17.0105 53.1949 17.4644C53.0247 17.9183 52.7978 18.3155 52.514 18.656C52.2303 18.9964 51.8899 19.2234 51.4927 19.3936C51.0955 19.5639 50.6416 19.6773 50.1876 19.6773C49.7337 19.6773 49.2798 19.5639 48.8826 19.3936C48.4854 19.2234 48.1449 18.9397 47.8612 18.656C47.5775 18.3155 47.3506 17.9183 47.1803 17.4644C47.0101 17.0105 46.9534 16.4998 46.9534 15.9324C46.9534 15.365 47.0101 14.8543 47.1803 14.4004C47.3506 13.9464 47.5775 13.5492 47.8612 13.2088C48.1449 12.8683 48.4854 12.6414 48.8826 12.4711C49.2798 12.3009 49.7337 12.1874 50.1876 12.1874C50.6416 12.1874 51.0955 12.3009 51.4927 12.4711C51.8899 12.6414 52.2303 12.8683 52.514 13.2088C52.7978 13.5492 53.0247 13.9464 53.1949 14.4004C53.3084 14.911 53.4219 15.365 53.4219 15.9324ZM52.1169 15.9324C52.1169 15.138 51.9466 14.5138 51.6062 14.0599C51.2657 13.606 50.8118 13.3223 50.1876 13.3223C49.5635 13.3223 49.1095 13.5492 48.7691 14.0599C48.4286 14.5138 48.2584 15.138 48.2584 15.9324C48.2584 16.7268 48.4286 17.3509 48.7691 17.8616C49.1095 18.3155 49.6202 18.5425 50.1876 18.5425C50.8118 18.5425 51.2657 18.3155 51.6062 17.8616C51.9466 17.4077 52.1169 16.7268 52.1169 15.9324ZM55.1242 12.5846C55.4079 12.5279 55.8051 12.4144 56.259 12.3577C56.7129 12.3009 57.2803 12.2442 57.8478 12.2442C58.4152 12.2442 58.8691 12.3009 59.2096 12.4711C59.55 12.6414 59.8337 12.8683 60.0607 13.152C60.2877 13.4358 60.4579 13.7762 60.5146 14.1734C60.6281 14.5706 60.6281 15.0245 60.6281 15.4785V19.4504H59.3798V15.7622C59.3798 15.3082 59.323 14.9678 59.2663 14.6273C59.2096 14.3436 59.0961 14.0599 58.9826 13.8897C58.8691 13.7195 58.6989 13.5492 58.4719 13.4925C58.245 13.379 57.9612 13.379 57.6775 13.379C57.5641 13.379 57.3938 13.379 57.2803 13.379C57.1669 13.379 56.9966 13.379 56.8832 13.4358C56.7697 13.4358 56.6562 13.4358 56.5427 13.4925C56.4292 13.4925 56.3725 13.5492 56.3157 13.5492V19.5639H55.0674V12.5846H55.1242ZM62.3304 15.9324C62.3304 15.3082 62.4438 14.7408 62.6141 14.2869C62.7843 13.8329 63.0113 13.4358 63.295 13.0953C63.5787 12.8116 63.9191 12.5279 64.3163 12.4144C64.7135 12.2442 65.1107 12.1874 65.5079 12.1874C66.4158 12.1874 67.1534 12.4711 67.6641 13.0953C68.1747 13.6627 68.4017 14.5706 68.4017 15.8189C68.4017 15.8756 68.4017 15.9324 68.4017 16.0459C68.4017 16.1026 68.4017 16.2161 68.4017 16.2728H63.6922C63.7489 17.0105 63.9759 17.5779 64.3163 17.9751C64.6568 18.3723 65.2242 18.5425 66.0186 18.5425C66.4725 18.5425 66.8129 18.4858 67.0967 18.429C67.3804 18.3723 67.6073 18.2588 67.7776 18.2021L67.9478 19.2801C67.7776 19.3369 67.5506 19.4504 67.1534 19.5639C66.7562 19.6773 66.359 19.6773 65.9051 19.6773C65.2809 19.6773 64.7702 19.5639 64.3163 19.3936C63.8624 19.2234 63.5219 18.9397 63.2382 18.5992C62.9545 18.2588 62.7275 17.8616 62.6141 17.4644C62.4438 17.0105 62.3304 16.4998 62.3304 15.9324ZM67.0967 15.2515C67.0967 14.6841 66.9832 14.2301 66.6995 13.8329C66.4158 13.4358 66.0186 13.2655 65.5079 13.2655C65.2242 13.2655 64.9972 13.3223 64.7702 13.4358C64.5433 13.5492 64.3731 13.6627 64.2028 13.8897C64.0326 14.0599 63.9191 14.2869 63.8624 14.5138C63.8056 14.7408 63.7489 14.9678 63.6922 15.2515H67.0967ZM69.3096 20.8122C69.4231 20.8689 69.5365 20.9257 69.7068 20.9257C69.877 20.9824 70.0472 20.9824 70.1607 20.9824C70.6714 20.9824 71.0118 20.8689 71.2955 20.6419C71.5793 20.415 71.8062 20.0745 72.0332 19.5639C71.4658 18.4858 70.9551 17.2942 70.4444 16.1026C69.9905 14.8543 69.5933 13.606 69.2528 12.3577H70.5579C70.6714 12.7549 70.7849 13.2088 70.8984 13.6627C71.0118 14.1167 71.1821 14.6273 71.3523 15.138C71.5225 15.6487 71.6927 16.1594 71.9197 16.6133C72.0899 17.124 72.3169 17.5779 72.5439 18.0318C72.8843 17.0672 73.168 16.1026 73.395 15.1947C73.6219 14.2301 73.8489 13.2655 74.0759 12.3009H75.3242C74.9838 13.6627 74.6433 14.911 74.2461 16.1594C73.8489 17.4077 73.4517 18.5425 72.9978 19.6206C72.8276 20.0178 72.6573 20.3582 72.4304 20.6987C72.2602 20.9824 72.0332 21.2661 71.8062 21.4363C71.5793 21.6066 71.2955 21.7768 71.0118 21.8335C70.7281 21.947 70.3877 21.947 70.0472 21.947C69.9337 21.947 69.877 21.947 69.7635 21.947C69.65 21.947 69.5365 21.947 69.4231 21.8903C69.3096 21.8903 69.2528 21.8335 69.1394 21.8335C69.0826 21.8335 69.0259 21.7768 68.9691 21.7768L69.3096 20.8122ZM78.3315 18.5992C78.8422 18.5992 79.1826 18.5425 79.4663 18.3723C79.6933 18.2588 79.8635 18.0318 79.8635 17.6914C79.8635 17.4077 79.75 17.124 79.5231 16.9537C79.2961 16.7835 78.8989 16.5565 78.3315 16.3296C78.0478 16.2161 77.8208 16.1026 77.5371 15.9891C77.3102 15.8756 77.0832 15.7622 76.913 15.5919C76.7427 15.4217 76.5725 15.2515 76.5158 15.0245C76.4023 14.7976 76.3455 14.5138 76.3455 14.2301C76.3455 13.606 76.5725 13.0953 77.0265 12.7548C77.4804 12.3577 78.1045 12.1874 78.8422 12.1874C79.0124 12.1874 79.2394 12.1874 79.4096 12.2442C79.5798 12.2442 79.8068 12.3009 79.977 12.3009C80.1472 12.3009 80.3175 12.3577 80.431 12.4144C80.5444 12.4711 80.6579 12.4711 80.7147 12.5279L80.4877 13.606C80.3742 13.5492 80.1472 13.4358 79.8635 13.379C79.5798 13.3223 79.2394 13.2655 78.8422 13.2655C78.5017 13.2655 78.218 13.3223 77.9343 13.4925C77.7073 13.606 77.5371 13.8329 77.5371 14.1734C77.5371 14.3436 77.5371 14.4571 77.5939 14.5706C77.6506 14.6841 77.7641 14.7976 77.8776 14.911C77.9911 15.0245 78.1613 15.0813 78.3315 15.1947C78.5017 15.2515 78.7287 15.365 78.9557 15.4785C79.2961 15.5919 79.5798 15.7054 79.8068 15.8756C80.0905 15.9891 80.2607 16.1594 80.431 16.2728C80.6012 16.4431 80.7714 16.6133 80.8281 16.897C80.9416 17.124 80.9984 17.4077 80.9984 17.7481C80.9984 18.429 80.7714 18.883 80.2607 19.2234C79.8068 19.5639 79.1259 19.7341 78.2748 19.7341C77.6506 19.7341 77.1967 19.6773 76.8562 19.5639C76.5158 19.4504 76.2888 19.3936 76.1753 19.3369L76.4023 18.2588C76.5158 18.3155 76.7427 18.3723 77.0832 18.4858C77.4236 18.5425 77.8208 18.5992 78.3315 18.5992ZM88.2613 19.5071C88.0343 18.8262 87.7506 18.0886 87.4669 17.2942C87.1832 16.4431 86.9562 15.5919 86.7293 14.6841C86.5023 15.5919 86.2753 16.4998 85.9916 17.2942C85.7079 18.1453 85.481 18.883 85.1973 19.5071H84.1192C83.722 18.5425 83.3248 17.5212 82.9276 16.2728C82.5304 15.0813 82.1899 13.7762 81.8495 12.3577H83.1545C83.268 12.8116 83.3248 13.2655 83.495 13.7762C83.6085 14.2869 83.722 14.7976 83.8922 15.2515C84.0057 15.7622 84.1759 16.2161 84.3461 16.67C84.5163 17.124 84.6298 17.5212 84.7433 17.8616C84.9135 17.4077 85.027 17.0105 85.1973 16.4998C85.3675 16.0459 85.481 15.5352 85.5944 15.0813C85.7079 14.5706 85.8781 14.1167 85.9916 13.6627C86.1051 13.2088 86.2186 12.7549 86.3321 12.3577H87.3534C87.4102 12.7549 87.5237 13.2088 87.6371 13.6627C87.7506 14.1167 87.8641 14.6273 88.0343 15.0813C88.1478 15.5352 88.318 16.0459 88.4315 16.4998C88.6017 16.9537 88.7152 17.4077 88.8855 17.8616C88.9989 17.5212 89.1692 17.124 89.2827 16.67C89.4529 16.2161 89.5664 15.7054 89.7366 15.2515C89.8501 14.7408 90.0203 14.2301 90.1338 13.7762C90.2473 13.2655 90.3607 12.8116 90.4742 12.3577H91.7225C91.3821 13.7762 90.9849 15.0245 90.6445 16.2728C90.2473 17.4644 89.8501 18.5425 89.4529 19.5071H88.2613ZM95.2405 18.5992C95.5242 18.5992 95.8079 18.5992 96.0349 18.5992C96.2619 18.5992 96.4321 18.5425 96.6023 18.5425V16.4431C96.4888 16.3863 96.3754 16.3863 96.1484 16.3296C95.9782 16.2728 95.6945 16.2728 95.4108 16.2728C95.2405 16.2728 95.0136 16.2728 94.7866 16.3296C94.5596 16.3296 94.3894 16.4431 94.2192 16.4998C94.0489 16.5565 93.9355 16.7268 93.822 16.8403C93.7085 17.0105 93.6518 17.1807 93.6518 17.4077C93.6518 17.8616 93.7652 18.2021 94.049 18.3723C94.3894 18.4858 94.7866 18.5992 95.2405 18.5992ZM95.127 12.2442C95.6377 12.2442 96.0349 12.3009 96.3754 12.4711C96.7158 12.5846 96.9995 12.8116 97.1697 13.0386C97.3967 13.2655 97.5102 13.5492 97.6237 13.8897C97.7372 14.2301 97.7372 14.5706 97.7372 14.9678V19.3936C97.6237 19.3936 97.5102 19.4504 97.2832 19.4504C97.113 19.4504 96.886 19.5071 96.6591 19.5071C96.4321 19.5071 96.1484 19.5639 95.8647 19.5639C95.581 19.5639 95.2973 19.6206 95.0703 19.6206C94.6731 19.6206 94.3327 19.5639 93.9922 19.5071C93.6518 19.4504 93.368 19.2801 93.1411 19.1099C92.9141 18.9397 92.7439 18.7127 92.5737 18.3723C92.4602 18.0886 92.4034 17.7481 92.4034 17.2942C92.4034 16.897 92.4602 16.5565 92.6304 16.2728C92.8006 15.9891 93.0276 15.7622 93.2546 15.5919C93.5383 15.4217 93.822 15.3082 94.1624 15.1947C94.5029 15.138 94.9001 15.0813 95.2973 15.0813C95.4108 15.0813 95.5242 15.0813 95.6945 15.0813C95.8079 15.0813 95.9782 15.0813 96.0917 15.138C96.2051 15.138 96.3186 15.1947 96.4321 15.1947C96.5456 15.1947 96.6023 15.2515 96.6023 15.2515V14.911C96.6023 14.6841 96.6023 14.5138 96.5456 14.2869C96.4888 14.0599 96.4321 13.8897 96.3186 13.7195C96.2051 13.5492 96.0349 13.4358 95.8647 13.3223C95.6945 13.2088 95.4108 13.152 95.0703 13.152C94.6731 13.152 94.3327 13.2088 93.9922 13.2655C93.7085 13.3223 93.4815 13.379 93.3113 13.4358L93.1411 12.3577C93.3113 12.3009 93.5383 12.2442 93.9355 12.1307C94.3327 12.2442 94.7299 12.2442 95.127 12.2442ZM104.603 15.9324C104.603 15.0813 104.376 14.4571 103.979 14.0032C103.582 13.5492 103.071 13.3223 102.39 13.3223C101.993 13.3223 101.709 13.3223 101.539 13.379C101.312 13.379 101.198 13.4358 101.028 13.4925V17.9751C101.198 18.0886 101.369 18.2021 101.652 18.3155C101.936 18.429 102.22 18.4858 102.56 18.4858C102.901 18.4858 103.241 18.429 103.468 18.3155C103.752 18.2021 103.922 17.9751 104.092 17.7481C104.262 17.5212 104.376 17.2374 104.433 16.9537C104.603 16.67 104.603 16.3296 104.603 15.9324ZM105.908 15.9324C105.908 16.4431 105.851 16.9537 105.681 17.4077C105.568 17.8616 105.341 18.2588 105.114 18.5992C104.83 18.9397 104.546 19.1667 104.149 19.3369C103.752 19.5071 103.355 19.6206 102.844 19.6206C102.447 19.6206 102.106 19.5639 101.766 19.4504C101.482 19.3369 101.255 19.2234 101.085 19.1099V21.947H99.8366V12.6414C100.12 12.5846 100.518 12.4711 100.915 12.4144C101.369 12.3009 101.879 12.3009 102.447 12.3009C102.957 12.3009 103.468 12.4144 103.865 12.5846C104.262 12.7549 104.66 12.9818 104.943 13.3223C105.227 13.6627 105.454 14.0599 105.624 14.5138C105.851 14.8543 105.908 15.365 105.908 15.9324Z" fill="white"/>
</g>
<defs>
<clipPath id="clip0">
<rect width="104.972" height="22.6967" fill="white" transform="translate(0.933594 0.101562)"/>
</clipPath>
</defs>
</svg>

<svg xmlns="http://www.w3.org/2000/svg" width="106" height="23" fill="none">
  <g clip-path="url(#a)" opacity=".6">
    <path fill="#fff"
      d="M14.097 9.918a1.275 1.275 0 0 0-1.021.114L1.557 16.67c-.567.34-.794 1.078-.454 1.645.398.795 1.76 1.532 3.348 1.816a9.39 9.39 0 0 0 1.816.17c1.589 0 3.177-.397 4.653-1.078 1.361-.624 2.666-2.043 3.46-3.745.852-1.816 1.022-3.575.455-4.936a1.37 1.37 0 0 0-.738-.625ZM31.971 16.727l-11.518-6.695c-.34-.17-.681-.227-1.021-.114-.34.114-.625.34-.738.681-.567 1.362-.397 3.178.454 4.937.794 1.702 2.1 3.064 3.461 3.745 1.475.68 3.064 1.078 4.653 1.078a9.84 9.84 0 0 0 1.816-.17c1.645-.34 3.007-1.078 3.347-1.816.34-.624.114-1.305-.453-1.646Z" />
    <path fill="#686868" fill-rule="evenodd"
      d="M12.055.669c0-.284.227-.567.567-.567a3.56 3.56 0 0 1 3.575 3.574.569.569 0 0 1-1.135 0 2.519 2.519 0 0 0-2.497-2.496.509.509 0 0 1-.51-.511ZM20.963 1.18a2.519 2.519 0 0 0-2.496 2.496.569.569 0 0 1-1.135 0C17.389 1.69 18.977.102 20.963.102c.284 0 .568.227.568.567 0 .34-.227.51-.567.51Z"
      clip-rule="evenodd" />
    <path fill="#898C8D"
      d="M22.209 19.395H10.293l5.39 3.12a2.1 2.1 0 0 0 2.157 0l5.39-3.12H22.21ZM23.856 12.527H9.104v3.575h15.32v-3.575h-.568Z" />
    <path fill="#D4D4D4"
      d="m23.346 9.238-.114-.056H10.295l-.113.056c-.681.398-1.078 1.079-1.078 1.816v1.419h15.32v-1.419c0-.68-.454-1.418-1.078-1.816ZM23.856 16.104H9.104v1.418c0 .738.397 1.475 1.078 1.816l.113.056h12.937l.114-.056c.68-.397 1.078-1.078 1.078-1.816v-1.418h-.568Z" />
    <path fill="#686868" d="M17.84 6.06c-.681-.398-1.476-.398-2.1 0l-5.447 3.12h12.88L17.84 6.06Z" />
    <path fill="#fff"
      d="M43.833 10.031h1.305v9.476h-1.305v-4.369H39.35v4.37h-1.305V10.03h1.305v3.972h4.483v-3.972Zm9.589 5.901c0 .568-.057 1.079-.227 1.532a4.08 4.08 0 0 1-.681 1.192c-.284.34-.624.567-1.021.738-.398.17-.851.283-1.305.283-.454 0-.908-.113-1.305-.283-.398-.17-.738-.454-1.022-.738a4.085 4.085 0 0 1-.68-1.192c-.17-.453-.228-.964-.228-1.532 0-.567.057-1.078.227-1.532.17-.454.398-.85.681-1.191.284-.34.624-.568 1.022-.738.397-.17.85-.284 1.305-.284.454 0 .907.114 1.305.284.397.17.737.397 1.021.738.284.34.51.737.68 1.191.114.511.228.965.228 1.532Zm-1.305 0c0-.794-.17-1.418-.51-1.872-.341-.454-.795-.738-1.42-.738-.623 0-1.078.227-1.418.738-.34.454-.51 1.078-.51 1.872 0 .795.17 1.419.51 1.93.34.454.851.68 1.419.68.624 0 1.078-.227 1.418-.68.34-.454.51-1.135.51-1.93Zm3.007-3.347c.284-.057.681-.17 1.135-.227a13.039 13.039 0 0 1 1.589-.114c.567 0 1.021.057 1.362.227.34.17.624.397.85.681.228.284.398.624.455 1.021.113.398.113.851.113 1.306v3.971H59.38v-3.688c0-.454-.057-.794-.114-1.135a2.224 2.224 0 0 0-.283-.737c-.114-.17-.284-.34-.511-.398-.227-.113-.51-.113-.794-.113h-.398c-.113 0-.283 0-.397.057-.113 0-.227 0-.34.056-.114 0-.17.057-.227.057v6.015h-1.249v-6.98h.057Zm7.206 3.347c0-.624.114-1.191.284-1.645.17-.454.397-.851.681-1.192.284-.283.624-.567 1.021-.68.397-.17.795-.228 1.192-.228.908 0 1.645.284 2.156.908.51.568.738 1.476.738 2.724v.454h-4.71c.057.738.284 1.305.624 1.702s.908.567 1.703.567a5.22 5.22 0 0 0 1.078-.113c.283-.057.51-.17.68-.227l.17 1.078c-.17.057-.396.17-.794.284-.397.113-.794.113-1.248.113a4.414 4.414 0 0 1-1.589-.283c-.454-.17-.794-.454-1.078-.795a3.198 3.198 0 0 1-.624-1.135 4.33 4.33 0 0 1-.284-1.532Zm4.767-.68c0-.568-.114-1.022-.397-1.42-.284-.396-.681-.567-1.192-.567-.284 0-.51.057-.738.17a1.44 1.44 0 0 0-.567.455c-.17.17-.284.397-.34.624-.057.227-.114.454-.17.738h3.404Zm2.213 5.56c.113.057.227.114.397.114.17.056.34.056.454.056.51 0 .85-.113 1.135-.34.283-.227.51-.567.737-1.078-.567-1.078-1.078-2.27-1.589-3.461a47.658 47.658 0 0 1-1.191-3.745h1.305c.113.397.227.85.34 1.305.114.454.284.964.454 1.475.17.51.34 1.021.568 1.475.17.511.397.965.624 1.419.34-.965.624-1.93.851-2.837l.68-2.894h1.25c-.341 1.362-.682 2.61-1.079 3.858-.397 1.249-.794 2.384-1.248 3.462-.17.397-.34.737-.568 1.078-.17.283-.397.567-.624.737-.227.17-.51.34-.794.398-.284.113-.624.113-.965.113h-.284c-.113 0-.227 0-.34-.057-.113 0-.17-.056-.284-.056-.056 0-.113-.057-.17-.057l.34-.965Zm9.022-2.213c.51 0 .85-.056 1.134-.227.227-.113.398-.34.398-.68 0-.284-.114-.568-.34-.738-.228-.17-.625-.398-1.192-.624-.284-.114-.511-.227-.795-.34-.227-.114-.454-.228-.624-.398-.17-.17-.34-.34-.397-.568a1.812 1.812 0 0 1-.17-.794c0-.624.227-1.135.68-1.475.454-.397 1.079-.568 1.816-.568.17 0 .397 0 .568.057.17 0 .397.057.567.057.17 0 .34.057.454.113.113.057.227.057.284.114l-.227 1.078a2.457 2.457 0 0 0-.624-.227 5.092 5.092 0 0 0-1.022-.114c-.34 0-.624.057-.908.227-.227.114-.397.34-.397.681 0 .17 0 .284.057.398.057.113.17.227.284.34.113.114.283.17.454.284.17.056.397.17.624.284.34.113.624.226.85.397.285.113.455.283.625.397.17.17.34.34.397.624.114.227.17.51.17.851 0 .681-.227 1.135-.737 1.475-.454.34-1.135.511-1.986.511-.624 0-1.078-.057-1.419-.17-.34-.114-.567-.17-.68-.227l.226-1.078c.114.056.34.113.681.227.34.056.738.113 1.249.113Zm9.93.908c-.228-.68-.511-1.418-.795-2.213a35.002 35.002 0 0 1-.738-2.61c-.227.908-.454 1.816-.737 2.61-.284.851-.511 1.589-.795 2.213H84.12a40.247 40.247 0 0 1-1.191-3.234c-.398-1.192-.738-2.497-1.078-3.915h1.305c.113.454.17.907.34 1.418.114.51.227 1.022.397 1.476.114.51.284.964.454 1.418.17.454.284.851.397 1.192.17-.454.284-.851.454-1.362.17-.454.284-.965.397-1.419.114-.51.284-.964.398-1.418.113-.454.227-.908.34-1.305h1.021c.057.397.17.85.284 1.305.114.454.227.964.397 1.418.114.454.284.965.397 1.419.17.454.284.908.454 1.362.114-.34.284-.738.398-1.192.17-.454.283-.965.454-1.419.113-.51.283-1.02.397-1.475.113-.51.227-.964.34-1.418h1.248c-.34 1.418-.737 2.666-1.078 3.915a50.37 50.37 0 0 1-1.191 3.234H88.26Zm6.978-.908h.795c.227 0 .397-.056.567-.056v-2.1c-.113-.057-.227-.057-.454-.113-.17-.057-.453-.057-.737-.057-.17 0-.397 0-.624.057-.227 0-.398.113-.568.17-.17.056-.283.227-.397.34a.958.958 0 0 0-.17.568c0 .454.113.794.397.964.34.114.738.227 1.191.227Zm-.113-6.355c.51 0 .908.057 1.248.227.34.114.624.34.795.568.227.226.34.51.454.85.113.341.113.682.113 1.079v4.426c-.113 0-.227.056-.454.056-.17 0-.397.057-.624.057-.227 0-.51.057-.794.057-.284 0-.568.057-.795.057a6.28 6.28 0 0 1-1.078-.114c-.34-.057-.624-.227-.85-.397-.228-.17-.398-.397-.568-.738-.114-.283-.17-.624-.17-1.078 0-.397.056-.738.226-1.021.17-.284.398-.51.625-.681.283-.17.567-.284.907-.397.34-.057.738-.114 1.135-.114h.398c.113 0 .283 0 .397.057.113 0 .227.057.34.057.114 0 .17.056.17.056v-.34c0-.227 0-.397-.056-.624-.057-.227-.114-.397-.227-.568-.114-.17-.284-.283-.454-.397-.17-.113-.454-.17-.795-.17-.397 0-.737.057-1.078.114-.284.056-.51.113-.68.17l-.17-1.078c.17-.057.396-.114.794-.227.397.113.794.113 1.191.113Zm9.476 3.688c0-.85-.227-1.475-.624-1.929-.397-.454-.908-.68-1.589-.68-.397 0-.681 0-.851.056-.227 0-.341.057-.511.114v4.482c.17.114.341.227.624.34.284.114.568.17.908.17.341 0 .681-.056.908-.17.284-.113.454-.34.624-.567.17-.227.284-.51.341-.794.17-.284.17-.624.17-1.022Zm1.305 0c0 .511-.057 1.022-.227 1.476-.113.454-.34.85-.567 1.191-.284.34-.568.568-.965.738a3.15 3.15 0 0 1-1.305.284c-.397 0-.738-.057-1.078-.17a3.762 3.762 0 0 1-.681-.341v2.837h-1.248v-9.306c.283-.056.681-.17 1.078-.227.454-.113.964-.113 1.532-.113.51 0 1.021.113 1.418.284.397.17.795.397 1.078.737.284.34.511.738.681 1.192.227.34.284.851.284 1.418Z" />
  </g>
  <defs>
    <clipPath id="a">
      <path fill="#fff" d="M.934.102h104.972v22.697H.934z" />
    </clipPath>
  </defs>
</svg>
